X: 37335
T: Skylark, The
R: reel
M: 4/4
K: Dmajor
|:agfg efdB|AF~F2 DFAd|BG~G2 EFGE|FA~A2 BAFA|
agfg efdB|AF~F2 DFAd|BGGF ~G2ag|(3faf eg fddf:|
|:a2fd Adfd|efed cA~A2|a2fa bged|Beed efge|
~f3a ~g3e|f2fe dBAF|DFAF ~G2ag|(3faf eg fddf:|

